!!!OTL: 1602. Die zwoelf heiligen Zahlen.
!!!ARE: Europa, Mitteleuropa, Deutschland, Boehmen
!!!SCT: K1602
!!!TXL: @@DE
!!!YEM: Copyright 1995, estate of Helmut Schaffrath.
**kern	**text
*clefG2	*
*M4/4	*
*met(c)	*
*k[f#]	*
*G:	*
=1	=1
{4g	Lie-
4g	-ber
4g	Freund,
4a	ich
=2	=2
8gL	fra-
8f#J	.
4e	-ge
4d	dich
4r}	.
=3	=3
{4g	Lieb-
4g	-ſter
4g	Freund,
4a	was
=4	=4
8gL	fragſt
8f#J	.
4e	du
4d	mich?
4r}	.
=5	=5
{4e	Sag'
4e	mir,
4f#	was
4f#	iſt
=6	=6
2g	Eins.
2r}	.
=7||	=7||
!LO:TX:a:t=*	!
{(4g	Eins
4b)	und
4b	Eins
4dd	iſt
=8	=8
4dd	Gott
4cc	der
!LO:TX:a:t=*	!
2a}	Herr,
=9	=9
{4g	der
4b	da
4b	lebt
4dd	und
=10	=10
4dd	der
4cc	da
4a}	ſchwebt
{4cc	im
=11	=11
4b/	Him-
4g	-mel
4f#	und
4a	auf
=12	=12
2a	Er-
4g	-den.
4r}	.
==	==
!!!AGN: Kinder - Lied, religioes, Gebet
!!!ONB: ESAC (Essen Associative Code) Database: KINDER
!!!AMT: simple quadruple
!!!AIN: vox
!!!EED: Helmut Schaffrath
!!!EEV: 1.0
!!Aus Boehmen (vor 1820).
!!!GTL: XIII. Kindergebete und fromme Reime.
!!@@COMMENT:"* Alle Ʒuſätʒe der folgenden Strophen werden auf den Melodieſatʒ ʒwiſchen und * geſungen. Nach L. Erk's Liederhort 1856. Nr. 198 (Neue Bearbeitung III. 
!!S. 825-831), Dort viele Notiʒen über hebräiſchen Urſprung dieſer Ʒählgeſchichte, ihre lateiniſche Faſſung und Verbreitung faſt in allen Sprachen des 
!!chriſtlichen Europas."
!!@@END:
!!!URL-scan: https://archive.org/details/DeutschesKinderliedUndKinderspiel/page/328/mode/1up
!!!ENC: Anna Maria Matuszewska
!!!EEV: 2024/02/09
*-	*-
